img/svg/icon-font/profit.svg

<svg width="22" height="22" viewBox="0 0 22 22" fill="none" xmlns="http://www.w3.org/2000/svg">
<g clip-path="url(#clip0)">
<path d="M20.5181 10.7779C19.7519 10.3947 18.7522 10.1837 17.7031 10.1837C16.6541 10.1837 15.6544 10.3947 14.8882 10.7779C13.9324 11.2556 13.4062 11.9602 13.4062 12.7618C13.4062 12.7873 13.4068 12.8127 13.4078 12.8378C13.4068 12.8555 13.4062 12.8729 13.4062 12.8907V13.9525C12.6714 13.6271 11.7679 13.4493 10.8281 13.4493C9.77908 13.4493 8.77939 13.6603 8.01317 14.0435C7.05745 14.5212 6.53125 15.2258 6.53125 16.0274C6.53125 16.0377 6.53175 16.0477 6.53192 16.058C6.53175 16.0622 6.53125 16.0662 6.53125 16.0704V19.422C6.53125 19.7177 6.60326 20.0004 6.74173 20.2634C3.63388 20.0433 1.71875 17.8227 1.71875 14.3946C1.71875 12.0119 3.00529 9.802 5.5428 7.82661C5.56999 7.80546 5.59702 7.78499 5.62421 7.764C4.31584 9.66755 3.65234 11.622 3.65234 13.5782C3.65234 14.0529 4.03705 14.4376 4.51172 14.4376C4.98639 14.4376 5.37109 14.0529 5.37109 13.5782C5.37109 10.9168 6.91411 8.22508 9.9575 5.57747C9.97127 5.56555 9.98419 5.5543 9.99695 5.54306H12.5909C13.1635 5.78744 15.3622 6.78814 17.2588 8.49716C17.6113 8.81489 18.1548 8.78653 18.4725 8.43405C18.7903 8.0814 18.7619 7.53792 18.4093 7.22035C16.7106 5.68976 14.8395 4.69157 13.8254 4.21304L14.9801 1.25827C15.0191 1.15857 15.0391 1.05249 15.0391 0.945401V0.859464C15.0391 0.577146 14.9004 0.312787 14.6681 0.152326C14.436 -0.00796774 14.1397 -0.0440548 13.8757 0.0556462C11.9399 0.787793 10.0587 0.787793 8.12462 0.0556462C7.8606 -0.0442226 7.56418 -0.00813557 7.33188 0.152326C7.09958 0.312787 6.96094 0.577146 6.96094 0.859464V0.945401C6.96094 1.05249 6.98091 1.15857 7.01985 1.25827L8.1748 4.21338C7.3443 4.6053 5.93842 5.34634 4.52263 6.44255C3.22971 7.44392 2.1951 8.5366 1.44734 9.69088C0.486923 11.1733 0 12.7559 0 14.3946C0 16.6424 0.680786 18.5463 1.96851 19.9003C3.22534 21.222 4.97615 21.9471 7.03177 21.9974C7.03865 21.9977 7.04553 21.9977 7.05225 21.9977L10.8228 22.0001H10.8281H10.833H10.935H10.9355C10.9475 22.0001 10.9592 21.9987 10.971 21.9982C11.9676 21.9799 12.9118 21.7717 13.6431 21.4059C13.8767 21.2891 14.0847 21.1585 14.2656 21.0165C14.4466 21.1587 14.6544 21.2891 14.888 21.4059C15.6544 21.7891 16.6541 22.0001 17.7031 22.0001C18.7522 22.0001 19.7519 21.7891 20.5181 21.4059C21.4738 20.9282 22 20.2236 22 19.422V12.7618C22 11.9602 21.4738 11.2556 20.5181 10.7779ZM12.7874 2.14702L12.132 3.82431H9.86804L9.2126 2.14718C10.4026 2.37663 11.5972 2.37646 12.7874 2.14702ZM12.8745 19.8686C12.3512 20.1303 11.6074 20.2805 10.8333 20.2812H10.8224C10.0485 20.2805 9.30508 20.1303 8.78174 19.8686C8.34248 19.6491 8.25 19.4517 8.25 19.422V18.1205C8.98013 18.434 9.88382 18.6056 10.8281 18.6056C10.8602 18.6056 10.8922 18.6054 10.9241 18.6051C11.3988 18.5993 11.779 18.2101 11.7734 17.7356C11.7679 17.2609 11.3777 16.8791 10.904 16.8863C10.8788 16.8866 10.8535 16.8868 10.8281 16.8868C10.0522 16.8868 9.30626 16.7364 8.78174 16.4741C8.34248 16.2545 8.25 16.0571 8.25 16.0274C8.25 15.9977 8.34248 15.8003 8.78174 15.5806C9.30626 15.3184 10.0522 15.1681 10.8281 15.1681C11.595 15.1681 12.3371 15.3243 12.8639 15.5967C13.2777 15.8109 13.4062 16.0189 13.4062 16.0704V19.422C13.4062 19.4517 13.3138 19.6491 12.8745 19.8686ZM20.2812 19.422C20.2812 19.4517 20.1888 19.6491 19.7495 19.8686C19.225 20.1309 18.4791 20.2813 17.7031 20.2813C16.9272 20.2813 16.1813 20.1309 15.6567 19.8686C15.2175 19.6491 15.125 19.4517 15.125 19.422V18.1205C15.8551 18.434 16.7588 18.6056 17.7031 18.6056C17.7357 18.6056 17.7681 18.6054 17.8005 18.6049C18.275 18.5987 18.6546 18.2088 18.6483 17.7343C18.6421 17.2635 18.2587 16.8863 17.7892 16.8863C17.7854 16.8863 17.7815 16.8863 17.7776 16.8863C17.753 16.8866 17.728 16.8868 17.7031 16.8868C16.9272 16.8868 16.1813 16.7364 15.6567 16.4741C15.2175 16.2545 15.125 16.0571 15.125 16.0274V14.8555C15.855 15.1689 16.7592 15.3399 17.7031 15.3399C17.7357 15.3399 17.7681 15.3398 17.8005 15.3393C18.275 15.3331 18.6546 14.9431 18.6483 14.4686C18.6421 13.994 18.254 13.6133 17.7776 13.6207C17.753 13.621 17.728 13.6212 17.7031 13.6212C16.9272 13.6212 16.1813 13.4708 15.6567 13.2084C15.2175 12.9889 15.125 12.7915 15.125 12.7618C15.125 12.7321 15.2175 12.5347 15.6567 12.315C16.1813 12.0528 16.9272 11.9024 17.7031 11.9024C18.4791 11.9024 19.225 12.0528 19.7495 12.315C20.1888 12.5347 20.2812 12.7319 20.2812 12.7618V19.422Z" fill="#4C51CB"/>
</g>
<defs>
<clipPath id="clip0">
<rect width="22" height="22" fill="white"/>
</clipPath>
</defs>
</svg>

<svg width="22" height="22" fill="none" xmlns="http://www.w3.org/2000/svg"><g clip-path="url(#clip0)"><path d="M20.518 10.778c-.766-.383-1.766-.594-2.815-.594s-2.049.21-2.815.594c-.956.478-1.482 1.182-1.482 1.984 0 .025 0 .05.002.076a.931.931 0 00-.002.053v1.062c-.735-.326-1.638-.504-2.578-.504-1.049 0-2.049.211-2.815.595-.956.477-1.482 1.182-1.482 1.983v3.395c0 .296.072.578.21.841-3.107-.22-5.022-2.44-5.022-5.868 0-2.383 1.286-4.593 3.824-6.568l.081-.063c-1.308 1.904-1.972 3.858-1.972 5.814a.86.86 0 101.72 0c0-2.661 1.542-5.353 4.585-8a6.03 6.03 0 00.04-.035h2.594c.573.244 2.771 1.245 4.668 2.954a.86.86 0 001.15-1.277c-1.698-1.53-3.57-2.528-4.584-3.007l1.155-2.955a.859.859 0 00.06-.313V.86a.86.86 0 00-1.164-.803c-1.936.732-3.817.732-5.751 0A.86.86 0 006.96.859v.086c0 .107.02.214.059.313l1.155 2.955a20.184 20.184 0 00-3.652 2.23c-1.293 1-2.328 2.094-3.076 3.248C.487 11.173 0 12.756 0 14.395c0 2.247.68 4.151 1.969 5.505 1.256 1.322 3.007 2.047 5.063 2.097h.02l3.77.003h.114l.036-.002c.997-.018 1.94-.226 2.672-.592a3.65 3.65 0 00.623-.39c.18.143.388.273.622.39.766.383 1.766.594 2.815.594 1.05 0 2.049-.21 2.815-.594.956-.478 1.482-1.182 1.482-1.984v-6.66c0-.802-.526-1.506-1.482-1.984zm-7.73-8.631l-.656 1.677H9.868l-.655-1.677c1.19.23 2.384.23 3.574 0zm.086 17.722c-.523.261-1.267.412-2.04.412h-.012c-.773 0-1.517-.15-2.04-.412-.44-.22-.532-.417-.532-.447V18.12c.73.314 1.634.486 2.578.486h.096a.86.86 0 00-.02-1.72h-.076c-.776 0-1.522-.15-2.046-.412-.44-.22-.532-.417-.532-.447 0-.03.092-.227.532-.446.524-.263 1.27-.413 2.046-.413.767 0 1.51.156 2.036.429.414.214.542.422.542.473v3.352c0 .03-.092.227-.532.447zm7.407-.447c0 .03-.092.227-.531.447-.525.262-1.27.412-2.047.412-.776 0-1.522-.15-2.046-.412-.44-.22-.532-.417-.532-.447V18.12c.73.314 1.634.486 2.578.486l.098-.001a.86.86 0 00-.012-1.719h-.086c-.776 0-1.522-.15-2.046-.412-.44-.22-.532-.417-.532-.447v-1.172c.73.314 1.634.485 2.578.485h.098a.86.86 0 00-.023-1.72l-.075.001c-.776 0-1.522-.15-2.046-.413-.44-.22-.532-.417-.532-.446 0-.03.092-.227.532-.447.524-.262 1.27-.413 2.046-.413.776 0 1.522.15 2.047.413.439.22.531.417.531.447v6.66z" fill="#4C51CB"/></g><defs><clipPath id="clip0"><path fill="#fff" d="M0 0h22v22H0z"/></clipPath></defs></svg>
